public/svgs/thin/arrow-left-from-line.svg

<svg xmlns="http://www.w3.org/2000/svg" viewBox="0 0 448 512"><!-- Font Awesome Pro 6.0.0-alpha2 by @fontawesome - https://fontawesome.com License - https://fontawesome.com/license (Commercial License) --><path d="M2.344 250.344C-0.781 253.469 -0.781 258.531 2.344 261.656L154.344 413.656C155.906 415.219 157.937 416 160 416S164.094 415.219 165.656 413.656C168.781 410.531 168.781 405.469 165.656 402.344L27.312 264H344C348.406 264 352 260.422 352 256S348.406 248 344 248H27.312L165.656 109.656C168.781 106.531 168.781 101.469 165.656 98.344S157.469 95.219 154.344 98.344L2.344 250.344ZM432 72V440C432 444.418 435.582 448 440 448S448 444.418 448 440V72C448 67.582 444.418 64 440 64S432 67.582 432 72Z"/></svg>

<svg xmlns="http://www.w3.org/2000/svg" viewBox="0 0 448 512"><!--! Font Awesome Pro 6.5.1 by @fontawesome - https://fontawesome.com License - https://fontawesome.com/license (Commercial License) Copyright 2023 Fonticons, Inc. --><path d="M2.3 250.3c-3.1 3.1-3.1 8.2 0 11.3l136 136c3.1 3.1 8.2 3.1 11.3 0s3.1-8.2 0-11.3L27.3 264 344 264c4.4 0 8-3.6 8-8s-3.6-8-8-8L27.3 248 149.7 125.7c3.1-3.1 3.1-8.2 0-11.3s-8.2-3.1-11.3 0l-136 136zM432 440c0 4.4 3.6 8 8 8s8-3.6 8-8l0-368c0-4.4-3.6-8-8-8s-8 3.6-8 8l0 368z"/></svg>
